!!!OTL: ICH HAB EIN SCHAETZLE IN DER NAEH
!!!ARE: Europa, Mitteleuropa, Deutschland, Franken
!!!SCT: E0541
!!!YEM: Copyright 1995, estate of Helmut Schaffrath.
**kern
*ICvox
*Ivox
*M2/4
*k[f#c#g#]
*A:
{8e
=1
8e
8a
8a
8a
=2
16cc#
16b
16a
16g#
8a}
{8e
=3
8e
8a
8a
8a
=4
16cc#
16b
16a
16g#
8a}
{8a
=5
8a
8aa
8gg#
8ff#
=6
4ff#
8ee}
{8dd
=7
4cc#
16ee
16dd
16cc#
16b
=8
4b
8a}
==
!!!AGN: Liebes - Lied
!!!ONB: ESAC (Essen Associative Code) Database: ERK1
!!!AMT: simple duple
!!!AIN: vox
!!!EED: Helmut Schaffrath
!!!EEV: 1.0
*-
